X:495
T: Geese in The Bog
M: 6/8
L: 1/8
R: Jig
K: Amin
B|cEE GEE|cEE GAB|cEE GED|EAA A2B|
cEE GEE|cEE GAB| cBA GED|EAA A2 :|
B|cde ged|eaa ged|cde ged|eaa a2B|
cde ged|eaa ged| cBA GED|EAA A2 :|
